!!!OTL: UND WENN DER JAEGER IN DEN WALD
!!!ARE: Europa, Mitteleuropa, Deutschland, Rheinland, Koeln
!!!SCT: E1779
!!!YEM: Copyright 1995, estate of Helmut Schaffrath.
**kern
*ICvox
*Ivox
*M4/4
*k[b-]
*F:
=1
{4cc
8g
8g
8.g
16g
8b-
8b-
=2
8.a
16a
4a
16a
16a
16a
16a
4a}
=3
{4cc
8g
8g
4g
4b-
=4
4a
4a
16a
16a
16a
16a
4a}
=5
{4a
8f
8f
16f
16f
16f
16f
4f
=6
4b-
8g
8g
16g
16g
16g
16g
8g}
{16f
16g
=7
4.a
8f
8a
8g
8g
8e
=8
4f
2r}
{4a
=9
4g
4c
4c
4a
=10
4g
4c
4c}
{4g
=11
4.a
8f
4b-
4a
=12
2a
4g}
{8f
8g
=13
4a
4a
4b-
8g
8f
=14
4g
8g
8g
4g}
{4g
=15
2cc
2b-
=16
2ff
4r}
{4dd
=17
2cc
2b-
=18
2ff
4r}
{4dd
=19
2cc
2b-
=20
2a
2r}
==
!!!AGN: Scherz - Lied, Tabak; Jaeger - Lied
!!!ONB: ESAC (Essen Associative Code) Database: ERK3
!!!AMT: simple quadruple
!!!AIN: vox
!!!EED: Helmut Schaffrath
!!!EEV: 1.0
*-
